lib/core/plugins/img/email/priority-normal.svg

<svg height="16" width="16" xmlns="http://www.w3.org/2000/svg">
  <path d="M10 1c-0.17 0-0.36 0.05-0.52 0.14-1.44 0.88-4.98 3.44-6.48 3.86-1.38 0-3 0.67-3 2.5s1.63 2.5 3 2.5c0.3 0.08 0.64 0.23 1 0.41v4.59h2V11.55c1.34 0.86 2.69 1.83 3.48 2.31 0.16 0.09 0.34 0.14 0.52 0.14 0.52 0 1-0.42 1-1V2c0-0.58-0.48-1-1-1z m0 12c-0.38-0.23-0.89-0.58-1.5-1-0.16-0.11-0.33-0.22-0.5-0.34V3.31c0.16-0.11 0.31-0.2 0.47-0.31 0.61-0.41 1.16-0.77 1.53-1v11z m2-6h4v1H12v-1z m0 2l4 2v1L12 10v-1z m4-6v1L12 6v-1l4-2z" />
</svg>

<svg xmlns="http://www.w3.org/2000/svg" width="16" height="16" viewBox="0 0 16 16"><path fill-rule="evenodd" d="M10 1c-.17 0-.36.05-.52.14C8.04 2.02 4.5 4.58 3 5c-1.38 0-3 .67-3 2.5S1.63 10 3 10c.3.08.64.23 1 .41V15h2v-3.45c1.34.86 2.69 1.83 3.48 2.31.16.09.34.14.52.14.52 0 1-.42 1-1V2c0-.58-.48-1-1-1zm0 12c-.38-.23-.89-.58-1.5-1-.16-.11-.33-.22-.5-.34V3.31c.16-.11.31-.2.47-.31.61-.41 1.16-.77 1.53-1v11zm2-6h4v1h-4V7zm0 2l4 2v1l-4-2V9zm4-6v1l-4 2V5l4-2z"/></svg>
